;FLAVOR:UltiGCode
;TIME:2361
;MATERIAL:3780
;MATERIAL2:0
;NOZZLE_DIAMETER:0.4
;MINX:92.792
;MINY:82.424
;MINZ:0.27
;MAXX:130.208
;MAXY:140.576
;MAXZ:13.07
;TARGET_MACHINE.NAME:Ultimaker 2+
;Generated with Cura_SteamEngine 5.9.0
M82 ;absolute extrusion mode
G0 F3000 Y50 ;avoid prime blob
G92 E0
G92 E0
G10
;LAYER_COUNT:65
;LAYER:0
M107
G0 F7200 X112.488 Y113.306 Z0.27
;TYPE:SKIRT
G11
G1 F1800 X111.989 Y112.531 E0.09955
G1 X111.359 Y113.469 E0.22158
G1 X111.467 Y113.494 E0.23355
G1 X112.041 Y113.306 E0.29879
G1 X112.488 Y113.306 E0.34706
G0 F7200 X113.529 Y113.706
G1 F1800 X112.875 Y113.17 E0.43839
G1 X111.996 Y111.803 E0.61391
G1 X110.908 Y113.424 E0.82475
G1 X110.42 Y113.787 E0.89044
G1 X110.953 Y113.788 E0.94801
G1 X111.487 Y113.908 E1.00712
G1 X112.104 Y113.706 E1.07723
G1 X113.529 Y113.706 E1.23113
G0 F7200 X114.648 Y114.106
G1 F1800 X113.179 Y112.903 E1.43619
G1 X112.361 Y111.63 E1.59962
G1 X111.979 Y110.564 E1.72191
G1 X111.825 Y111.34 E1.80735
G1 X110.576 Y113.201 E2.04941
G1 X109.109 Y114.186 E2.24025
G1 X110.953 Y114.188 E2.4394
G1 X111.502 Y114.323 E2.50046
G1 X112.167 Y114.106 E2.57601
G1 X114.648 Y114.106 E2.84395
G10
G0 F7200 X129.205 Y113.763
G11
G1 F1800 X130.208 Y116.835 E3.19297
G1 X130.208 Y134.322 E5.08156
G1 X129.136 Y136.711 E5.36436
G1 X128.105 Y138.154 E5.5559
G1 X126.1 Y139.602 E5.823
G1 X123.61 Y140.506 E6.1091
G1 X111.869 Y140.501 E7.37712
G1 X111.654 Y140.475 E7.40051
G1 X111.078 Y140.576 E7.46367
G1 X99.613 Y140.576 E8.70189
G1 X97.685 Y140.156 E8.915
G1 X95.865 Y139.046 E9.14523
G1 X93.783 Y136.9 E9.46815
G1 X92.792 Y133.843 E9.81522
G1 X92.792 Y116.606 E11.67682
G1 X93.682 Y113.988 E11.97545
G1 X93.882 Y113.672 E12.01584
G1 X96.383 Y111.243 E12.39237
G1 X96.686 Y111.102 E12.42847
G1 X94.79 Y109.148 E12.72251
G1 X93.799 Y106.091 E13.06958
G1 X93.799 Y88.854 E14.93118
G1 X94.689 Y86.236 E15.22982
G1 X94.889 Y85.92 E15.27021
G1 X97.456 Y83.427 E15.65667
G1 X100.528 Y82.424 E16.00568
G1 X111.857 Y82.43 E17.22921
G1 X123.769 Y82.424 E18.51571
G1 X126.387 Y83.314 E18.81434
G1 X126.703 Y83.514 E18.85473
G1 X129.196 Y86.081 E19.24119
G1 X130.199 Y89.153 E19.5902
G1 X130.199 Y106.64 E21.4788
G1 X129.127 Y109.029 E21.7616
G1 X128.096 Y110.472 E21.95313
G1 X127.026 Y111.245 E22.09569
G1 X126.967 Y111.458 E22.11956
G1 X129.205 Y113.763 E22.46654
G0 F7200 X128.854 Y113.976
G1 F1800 X129.808 Y116.898 E22.79851
G1 X129.808 Y134.236 E24.67101
G1 X128.787 Y136.512 E24.94042
G1 X127.817 Y137.869 E25.12057
G1 X125.913 Y139.244 E25.37422
G1 X123.539 Y140.106 E25.64699
G1 X111.869 Y140.101 E26.90735
G1 X111.643 Y140.07 E26.93198
G1 X111.078 Y140.176 E26.99407
G1 X99.657 Y140.176 E28.22754
G1 X97.834 Y139.779 E28.42903
G1 X96.119 Y138.733 E28.64599
G1 X94.135 Y136.688 E28.95371
G1 X93.192 Y133.779 E29.28397
G1 X93.192 Y116.673 E31.13142
G1 X94.061 Y114.117 E31.42299
G1 X94.161 Y113.959 E31.44318
G1 X96.662 Y111.53 E31.81971
G1 X97.489 Y111.261 E31.91364
G1 X97.476 Y111.196 E31.9208
G1 X97.068 Y110.921 E31.97393
G1 X95.142 Y108.936 E32.27264
G1 X94.199 Y106.027 E32.60291
G1 X94.199 Y88.921 E34.45036
G1 X95.068 Y86.365 E34.74192
G1 X95.168 Y86.207 E34.76212
G1 X97.669 Y83.778 E35.13865
G1 X100.591 Y82.824 E35.47062
G1 X111.857 Y82.83 E36.68735
G1 X123.702 Y82.824 E37.96661
G1 X126.258 Y83.693 E38.25817
G1 X126.416 Y83.793 E38.27837
G1 X128.845 Y86.294 E38.6549
G1 X129.799 Y89.216 E38.98687
G1 X129.799 Y106.554 E40.85937
G1 X128.778 Y108.83 E41.12878
G1 X127.808 Y110.187 E41.30893
G1 X126.677 Y111.004 E41.45961
G1 X126.52 Y111.572 E41.52326
G1 X128.854 Y113.976 E41.88513
G0 F7200 X128.503 Y114.189
G1 F1800 X126.272 Y111.892 E42.23096
G1 X126.014 Y111.748 E42.26287
G1 X126.241 Y111.199 E42.32703
G1 X126.308 Y110.778 E42.37307
G1 X127.522 Y109.901 E42.53481
G1 X128.427 Y108.634 E42.70297
G1 X129.399 Y106.468 E42.95937
G1 X129.399 Y89.279 E44.81578
G1 X128.494 Y86.507 E45.13071
G1 X126.129 Y84.072 E45.49731
G1 X123.635 Y83.224 E45.78181
G1 X111.857 Y83.23 E47.05384
G1 X100.654 Y83.224 E48.26376
G1 X97.882 Y84.129 E48.57869
G1 X95.447 Y86.494 E48.94529
G1 X94.599 Y88.988 E49.22979
G1 X94.599 Y105.963 E51.06309
G1 X95.494 Y108.724 E51.37655
G1 X97.355 Y110.642 E51.66517
G1 X97.835 Y110.95 E51.72677
G1 X97.951 Y111.531 E51.79076
G1 X96.875 Y111.881 E51.91296
G1 X94.44 Y114.246 E52.27956
G1 X93.592 Y116.74 E52.56406
G1 X93.592 Y133.715 E54.39736
G1 X94.487 Y136.476 E54.71082
G1 X96.373 Y138.42 E55.00334
G1 X97.983 Y139.402 E55.20701
G1 X99.701 Y139.776 E55.3969
G1 X111.078 Y139.776 E56.62562
G1 X111.637 Y139.663 E56.68721
G1 X111.869 Y139.701 E56.7126
G1 X123.469 Y139.706 E57.9654
G1 X125.725 Y138.887 E58.22461
G1 X127.531 Y137.583 E58.46519
G1 X128.436 Y136.316 E58.63334
G1 X129.408 Y134.15 E58.88975
G1 X129.408 Y116.961 E60.74616
G1 X128.503 Y114.189 E61.06109
G0 F7200 X128.152 Y114.402
G1 F1800 X129.008 Y117.024 E61.35897
G1 X129.008 Y134.064 E63.19929
G1 X128.087 Y136.116 E63.4422
G1 X127.243 Y137.298 E63.59906
G1 X125.538 Y138.529 E63.82618
G1 X123.398 Y139.306 E64.07206
G1 X111.933 Y139.306 E65.31028
G1 X111.625 Y139.256 E65.34398
G1 X111.078 Y139.376 E65.40446
G1 X99.745 Y139.376 E66.62843
G1 X98.132 Y139.025 E66.80671
G1 X96.627 Y138.107 E66.9971
G1 X94.839 Y136.264 E67.27442
G1 X93.992 Y133.651 E67.57108
G1 X93.992 Y116.807 E69.39023
G1 X94.788 Y114.466 E69.65728
G1 X97.088 Y112.232 E70.00357
G1 X98.413 Y111.801 E70.15405
G1 X98.193 Y110.7 E70.2753
G1 X97.642 Y110.363 E70.34506
G1 X95.846 Y108.512 E70.6236
G1 X94.999 Y105.899 E70.92026
G1 X94.999 Y89.055 E72.73942
G1 X95.795 Y86.714 E73.00646
G1 X98.095 Y84.48 E73.35275
G1 X100.717 Y83.624 E73.65063
G1 X111.857 Y83.63 E74.85375
G1 X123.568 Y83.624 E76.11854
G1 X125.909 Y84.42 E76.38558
G1 X128.143 Y86.72 E76.73187
G1 X128.999 Y89.342 E77.02976
G1 X128.999 Y106.382 E78.87008
G1 X128.078 Y108.434 E79.11299
G1 X127.234 Y109.616 E79.26985
G1 X125.933 Y110.556 E79.4432
G1 X125.871 Y111.046 E79.49654
G1 X125.493 Y111.958 E79.60316
G1 X125.985 Y112.171 E79.66106
G1 X128.152 Y114.402 E79.99696
G0 F7200 X127.801 Y114.615
G1 F1800 X128.608 Y117.087 E80.2778
G1 X128.608 Y133.978 E82.10203
G1 X127.738 Y135.917 E82.33156
G1 X126.955 Y137.013 E82.47703
G1 X125.35 Y138.172 E82.69084
G1 X123.328 Y138.906 E82.92316
G1 X111.933 Y138.906 E84.15382
G1 X111.613 Y138.847 E84.18896
G1 X111.078 Y138.976 E84.2484
G1 X99.789 Y138.976 E85.46761
G1 X98.281 Y138.648 E85.63428
G1 X96.881 Y137.794 E85.81139
G1 X95.191 Y136.052 E86.07351
G1 X94.392 Y133.587 E86.35337
G1 X94.392 Y116.874 E88.15837
G1 X95.136 Y114.686 E88.40797
G1 X97.301 Y112.583 E88.73394
G1 X98.874 Y112.071 E88.91259
G1 X98.551 Y110.45 E89.0911
G1 X97.896 Y110.05 E89.17399
G1 X96.198 Y108.3 E89.43734
G1 X95.399 Y105.835 E89.71719
G1 X95.399 Y89.122 E91.5222
G1 X96.143 Y86.934 E91.77179
G1 X98.308 Y84.831 E92.09776
G1 X100.78 Y84.024 E92.3786
G1 X111.857 Y84.03 E93.57492
G1 X123.501 Y84.024 E94.83247
G1 X125.689 Y84.768 E95.08206
G1 X127.792 Y86.933 E95.40803
G1 X128.599 Y89.405 E95.68887
G1 X128.599 Y106.296 E97.5131
G1 X127.729 Y108.235 E97.74263
G1 X126.946 Y109.331 E97.8881
G1 X125.552 Y110.338 E98.07382
G1 X125.501 Y110.893 E98.13402
G1 X124.96 Y112.199 E98.28669
G1 X125.698 Y112.45 E98.37088
G1 X127.801 Y114.615 E98.69685
G0 F7200 X127.45 Y114.828
G1 F1800 X128.208 Y117.15 E98.96065
G1 X128.208 Y133.892 E100.76878
G1 X127.389 Y135.717 E100.98482
G1 X126.667 Y136.728 E101.11899
G1 X125.163 Y137.814 E101.31934
G1 X123.257 Y138.506 E101.53834
G1 X111.933 Y138.506 E102.76133
G1 X111.606 Y138.437 E102.79742
G1 X111.03 Y138.576 E102.86142
G1 X99.833 Y138.576 E104.07069
G1 X98.43 Y138.271 E104.22576
G1 X97.135 Y137.481 E104.38959
G1 X95.543 Y135.84 E104.63651
G1 X94.792 Y133.523 E104.89956
G1 X94.792 Y116.941 E106.69042
G1 X95.484 Y114.906 E106.92256
G1 X97.514 Y112.934 E107.22821
G1 X99.419 Y112.314 E107.44458
G1 X99.277 Y112.046 E107.47733
G1 X98.909 Y110.199 E107.68073
G1 X98.148 Y109.735 E107.77699
G1 X96.55 Y108.088 E108.02483
G1 X95.799 Y105.771 E108.28788
G1 X95.799 Y89.189 E110.07874
G1 X96.491 Y87.154 E110.31088
G1 X98.521 Y85.182 E110.61653
G1 X100.843 Y84.424 E110.88033
G1 X111.806 Y84.427 E112.06434
G1 X112.163 Y84.473 E112.10321
G1 X112.54 Y84.428 E112.14422
G1 X123.434 Y84.424 E113.32077
G1 X125.469 Y85.116 E113.55291
G1 X127.441 Y87.146 E113.85856
G1 X128.199 Y89.468 E114.12236
G1 X128.199 Y106.21 E115.9305
G1 X127.38 Y108.035 E116.14654
G1 X126.658 Y109.046 E116.28071
G1 X125.161 Y110.127 E116.48013
G1 X125.131 Y110.74 E116.54641
G1 X124.426 Y112.441 E116.74528
G1 X125.478 Y112.798 E116.86526
G1 X127.45 Y114.828 E117.17091
G0 F7200 X127.099 Y115.041
G1 F1800 X127.808 Y117.213 E117.41767
G1 X127.808 Y133.806 E119.20971
G1 X127.04 Y135.518 E119.41236
G1 X126.379 Y136.443 E119.53515
G1 X124.976 Y137.456 E119.72204
G1 X123.186 Y138.106 E119.92771
G1 X111.977 Y138.106 E121.13828
G1 X111.595 Y138.026 E121.18043
G1 X111.03 Y138.176 E121.24357
G1 X99.877 Y138.176 E122.44809
G1 X98.579 Y137.894 E122.59154
G1 X97.389 Y137.168 E122.74209
G1 X95.895 Y135.628 E122.97382
G1 X95.192 Y133.459 E123.22007
G1 X95.192 Y117.008 E124.99678
G1 X95.832 Y115.126 E125.21146
G1 X97.727 Y113.285 E125.4968
G1 X99.844 Y112.596 E125.73724
G1 X100.077 Y112.576 E125.7625
G1 X99.669 Y111.968 E125.84158
G1 X99.267 Y109.948 E126.06402
G1 X98.4 Y109.42 E126.17365
G1 X96.902 Y107.876 E126.40599
G1 X96.199 Y105.707 E126.65223
G1 X96.199 Y89.256 E128.42894
G1 X96.839 Y87.374 E128.64363
G1 X98.734 Y85.533 E128.92897
G1 X100.906 Y84.824 E129.17573
G1 X111.755 Y84.824 E130.34742
G1 X112.162 Y84.876 E130.39173
G1 X112.54 Y84.828 E130.43288
G1 X123.367 Y84.824 E131.6022
G1 X125.249 Y85.464 E131.81689
G1 X127.09 Y87.359 E132.10223
G1 X127.799 Y89.531 E132.34898
G1 X127.799 Y106.124 E134.14103
G1 X127.031 Y107.836 E134.34367
G1 X126.37 Y108.761 E134.46646
G1 X125.061 Y109.706 E134.64082
G1 X124.761 Y109.839 E134.67626
G1 X124.761 Y110.587 E134.75705
G1 X123.892 Y112.683 E135.0021
G1 X125.258 Y113.146 E135.15787
G1 X127.099 Y115.041 E135.44321
G0 F7200 X126.748 Y115.254
G1 F1800 X127.408 Y117.276 E135.67293
G1 X127.408 Y133.72 E137.44888
G1 X126.691 Y135.319 E137.63814
G1 X126.091 Y136.158 E137.74953
G1 X124.788 Y137.099 E137.92312
G1 X123.116 Y137.706 E138.11523
G1 X112.021 Y137.706 E139.31349
G1 X111.579 Y137.614 E139.36225
G1 X111.03 Y137.776 E139.42407
G1 X99.921 Y137.776 E140.62384
G1 X98.728 Y137.517 E140.75568
G1 X97.643 Y136.855 E140.89295
G1 X96.247 Y135.416 E141.10948
G1 X95.592 Y133.395 E141.33892
G1 X95.592 Y117.075 E143.10148
G1 X96.18 Y115.346 E143.29872
G1 X97.94 Y113.636 E143.56374
G1 X99.968 Y112.976 E143.79407
G1 X100.827 Y112.977 E143.88684
G1 X100.045 Y111.811 E144.03847
G1 X99.625 Y109.697 E144.27125
G1 X98.652 Y109.105 E144.39425
G1 X97.254 Y107.664 E144.61108
G1 X96.599 Y105.643 E144.84053
G1 X96.599 Y89.323 E146.60309
G1 X97.187 Y87.594 E146.80032
G1 X98.947 Y85.884 E147.06535
G1 X100.969 Y85.224 E147.29506
G1 X111.755 Y85.224 E148.45995
G1 X112.163 Y85.279 E148.50441
G1 X112.54 Y85.228 E148.5455
G1 X123.3 Y85.224 E149.70758
G1 X125.029 Y85.812 E149.90481
G1 X126.739 Y87.572 E150.16984
G1 X127.399 Y89.594 E150.39955
G1 X127.399 Y106.038 E152.1755
G1 X126.682 Y107.637 E152.36476
G1 X126.082 Y108.476 E152.47616
G1 X124.827 Y109.382 E152.64333
G1 X124.361 Y109.567 E152.69748
G1 X124.361 Y110.506 E152.79889
G1 X123.359 Y112.925 E153.08167
G1 X125.038 Y113.494 E153.27313
G1 X126.748 Y115.254 E153.53815
G0 F7200 X126.397 Y115.467
G1 F1800 X127.008 Y117.339 E153.75083
G1 X127.008 Y133.634 E155.51069
G1 X126.34 Y135.123 E155.68694
G1 X125.805 Y135.872 E155.78635
G1 X124.601 Y136.741 E155.94671
G1 X123.045 Y137.306 E156.12549
G1 X112.065 Y137.306 E157.31133
G1 X111.563 Y137.201 E157.36672
G1 X110.971 Y137.376 E157.43339
G1 X99.965 Y137.376 E158.62204
G1 X98.877 Y137.14 E158.74228
G1 X97.897 Y136.542 E158.86627
G1 X96.599 Y135.204 E159.0676
G1 X95.992 Y133.331 E159.28024
G1 X95.992 Y117.142 E161.02865
G1 X96.528 Y115.566 E161.20843
G1 X98.153 Y113.987 E161.45314
G1 X100.03 Y113.376 E161.66632
G1 X101.577 Y113.378 E161.8334
G1 X100.421 Y111.654 E162.05758
G1 X99.971 Y109.388 E162.30708
G1 X99.77 Y109.317 E162.33011
G1 X98.904 Y108.79 E162.43959
G1 X97.606 Y107.452 E162.64092
G1 X96.999 Y105.579 E162.85356
G1 X96.999 Y89.39 E164.60197
G1 X97.535 Y87.814 E164.78175
G1 X99.16 Y86.235 E165.02646
G1 X101.032 Y85.624 E165.23913
G1 X111.755 Y85.624 E166.39722
G1 X112.164 Y85.684 E166.44186
G1 X112.54 Y85.628 E166.48292
G1 X123.233 Y85.624 E167.63776
G1 X124.809 Y86.16 E167.81754
G1 X126.388 Y87.785 E168.06225
G1 X126.999 Y89.657 E168.27492
G1 X126.999 Y105.952 E170.03478
G1 X126.331 Y107.441 E170.21104
G1 X125.796 Y108.19 E170.31045
G1 X124.593 Y109.058 E170.47066
G1 X123.961 Y109.287 E170.54326
G1 X123.961 Y110.425 E170.66616
G1 X122.988 Y112.775 E170.94086
G1 X122.457 Y113.306 E171.02196
G1 X123.242 Y113.306 E171.10674
G1 X124.818 Y113.842 E171.28652
G1 X126.397 Y115.467 E171.53123
G0 F7200 X126.046 Y115.68
G1 F1800 X124.598 Y114.19 E171.75562
G1 X123.175 Y113.706 E171.91795
G1 X121.491 Y113.706 E172.09982
G1 X122.648 Y112.549 E172.27654
G1 X123.561 Y110.344 E172.53428
G1 X123.561 Y109.007 E172.67868
G1 X124.405 Y108.701 E172.77564
G1 X125.508 Y107.905 E172.92254
G1 X125.982 Y107.241 E173.01065
G1 X126.599 Y105.866 E173.17342
G1 X126.599 Y89.72 E174.91718
G1 X126.037 Y87.998 E175.11281
G1 X124.589 Y86.508 E175.3372
G1 X123.166 Y86.024 E175.49953
G1 X112.599 Y86.024 E176.64077
G1 X112.163 Y86.089 E176.68838
G1 X111.755 Y86.024 E176.733
G1 X101.095 Y86.024 E177.88428
G1 X99.373 Y86.586 E178.07991
G1 X97.883 Y88.034 E178.3043
G1 X97.399 Y89.457 E178.46663
G1 X97.399 Y105.518 E180.20122
G1 X97.957 Y107.239 E180.39661
G1 X99.156 Y108.475 E180.58259
G1 X99.978 Y108.975 E180.6865
G1 X100.362 Y109.082 E180.72955
G1 X100.358 Y109.283 E180.75126
G1 X100.797 Y111.497 E180.99503
G1 X102.09 Y113.424 E181.24565
G1 X102.565 Y113.779 E181.3097
G1 X100.092 Y113.776 E181.57678
G1 X98.366 Y114.338 E181.77282
G1 X96.876 Y115.786 E181.99721
G1 X96.392 Y117.209 E182.15954
G1 X96.392 Y133.27 E183.89413
G1 X96.95 Y134.991 E184.08952
G1 X98.149 Y136.227 E184.2755
G1 X99.028 Y136.763 E184.38669
G1 X100.009 Y136.976 E184.49511
G1 X110.971 Y136.976 E185.679
G1 X111.543 Y136.786 E185.7441
G1 X112.065 Y136.906 E185.80194
G1 X122.975 Y136.906 E186.98022
G1 X124.413 Y136.384 E187.14544
G1 X125.517 Y135.587 E187.2925
G1 X125.991 Y134.923 E187.38061
G1 X126.608 Y133.548 E187.54337
G1 X126.608 Y117.402 E189.28714
G1 X126.046 Y115.68 E189.48277
G0 F7200 X125.695 Y115.893
G1 F1800 X124.378 Y114.538 E189.68685
G1 X123.108 Y114.106 E189.83173
G1 X120.28 Y114.106 E190.13715
G1 X120.755 Y113.876 E190.19415
G1 X122.308 Y112.323 E190.43134
G1 X123.161 Y110.263 E190.67214
G1 X123.161 Y108.727 E190.83803
G1 X124.217 Y108.344 E190.95935
G1 X125.22 Y107.62 E191.09295
G1 X125.633 Y107.042 E191.16967
G1 X126.199 Y105.78 E191.31904
G1 X126.199 Y89.783 E193.04672
G1 X125.686 Y88.211 E193.22531
G1 X124.369 Y86.856 E193.42938
G1 X123.099 Y86.424 E193.57426
G1 X112.599 Y86.424 E194.70826
G1 X112.161 Y86.495 E194.75618
G1 X111.755 Y86.424 E194.80069
G1 X101.158 Y86.424 E195.94517
G1 X99.586 Y86.937 E196.12376
G1 X98.231 Y88.254 E196.32783
G1 X97.799 Y89.524 E196.47271
G1 X97.799 Y105.457 E198.19348
G1 X98.308 Y107.026 E198.37162
G1 X99.408 Y108.16 E198.54225
G1 X100.186 Y108.633 E198.64058
G1 X100.805 Y108.769 E198.70903
G1 X100.75 Y109.205 E198.75649
G1 X101.173 Y111.34 E198.99155
G1 X102.422 Y113.201 E199.23361
G1 X103.88 Y114.18 E199.42328
G1 X100.154 Y114.176 E199.82568
G1 X98.579 Y114.689 E200.00458
G1 X97.224 Y116.006 E200.20865
G1 X96.792 Y117.276 E200.35353
G1 X96.792 Y133.209 E202.0743
G1 X97.301 Y134.778 E202.25244
G1 X98.401 Y135.912 E202.42307
G1 X99.179 Y136.386 E202.52146
G1 X100.053 Y136.576 E202.61805
G1 X110.971 Y136.576 E203.7972
G1 X111.52 Y136.367 E203.86064
G1 X112.065 Y136.506 E203.92139
G1 X122.904 Y136.506 E205.092
G1 X124.226 Y136.026 E205.24389
G1 X125.229 Y135.302 E205.37749
G1 X125.642 Y134.724 E205.45421
G1 X126.208 Y133.462 E205.60359
G1 X126.208 Y117.465 E207.33126
G1 X125.695 Y115.893 E207.50985
G0 F7200 X125.344 Y116.106
